images/email-mark-unread.svg

<?xml version="1.0" encoding="utf-8"?>
<!-- Generated by IcoMoon.io -->
<!DOCTYPE svg PUBLIC "-//W3C//DTD SVG 1.1//EN" "http://www.w3.org/Graphics/SVG/1.1/DTD/svg11.dtd">
<svg version="1.1" xmlns="http://www.w3.org/2000/svg" xmlns:xlink="http://www.w3.org/1999/xlink" width="30" height="30" viewBox="0 0 30 30">
<g>
	<line stroke-width="1" x1="" y1="" x2="" y2="" stroke="#449FDB" opacity=""></line>
</g>
	<path d="M29.202 10.742l-0.009 3.994-2.872 3.32 1.466 1.468c-0.171 0.257-0.448 0.436-0.78 0.436h-4.055c-0.523 0-0.949-0.425-0.949-0.949v-4.057c0-0.332 0.179-0.609 0.437-0.78l1.897 1.9 4.865-5.332z" fill="#000000"></path>
	<path d="M12.762 21.698c-0.433 0.43-1.136 0.43-1.57 0l-7.043-6.96h-0.025c0.138-0.235 0.385-0.401 0.68-0.401h14.389c0.271 0 0.497 0.141 0.644 0.347l-7.075 7.014zM16.989 8.394v4.995h-5.036l5.036-4.995zM14.041 10.443v-0.873c0-0.17-0.134-0.307-0.305-0.307h-9.497c-0.169 0-0.306 0.136-0.306 0.307v0.917l-2.87-2.789 7.104-4.468c0.45-0.282 1.178-0.282 1.629 0l7.103 4.467-2.858 2.746zM4.406 13.389c-0.736 0-1.406 0.592-1.406 1.32v5.287h-1.199c-0.44 0-0.799-0.354-0.799-0.791v-10.746l4.988 4.93h-1.584zM10.807 22.187c0.645 0.641 1.693 0.641 2.343 0l6.842-6.786v10.811c0 0.437-0.356 0.788-0.798 0.788h-14.39c-0.44 0-0.799-0.352-0.799-0.788v-10.746l6.802 6.721z" fill="#000000"></path>
	<path d="M26.196 10.448h-7.142v-2.502h7.142c1.66 0 3.004 1.346 3.004 3.004v2.502c0-1.658-1.344-3.004-3.004-3.004z" fill="#000000"></path>
</svg>

<?xml version="1.0" encoding="UTF-8" standalone="no"?>
<!-- Created with Inkscape (http://www.inkscape.org/) -->

<svg
   xmlns:dc="http://purl.org/dc/elements/1.1/"
   xmlns:cc="http://creativecommons.org/ns#"
   xmlns:rdf="http://www.w3.org/1999/02/22-rdf-syntax-ns#"
   xmlns:svg="http://www.w3.org/2000/svg"
   xmlns="http://www.w3.org/2000/svg"
   xmlns:inkscape="http://www.inkscape.org/namespaces/inkscape"
   version="1.1"
   width="30"
   height="30"
   viewBox="0 0 30 30"
   id="svg2">
  <metadata
     id="metadata10">
    <rdf:RDF>
      <cc:Work
         rdf:about="">
        <dc:format>image/svg+xml</dc:format>
        <dc:type
           rdf:resource="http://purl.org/dc/dcmitype/StillImage" />
      </cc:Work>
    </rdf:RDF>
  </metadata>
  <defs
     id="defs8" />
  <path
     d="m 29.202,10.742 -0.01,3.994 -2.87,3.32 1.465,1.468 c -0.17,0.257 -0.448,0.436 -0.78,0.436 h -4.055 c -0.523,0 -0.95,-0.425 -0.95,-0.95 v -4.056 c 0,-0.332 0.18,-0.61 0.438,-0.78 l 1.897,1.9 4.865,-5.332 z m -16.44,10.956 c -0.433,0.43 -1.136,0.43 -1.57,0 l -7.043,-6.96 h -0.03 c 0.13,-0.235 0.38,-0.4 0.68,-0.4 h 14.39 c 0.27,0 0.49,0.14 0.64,0.346 l -7.08,7.014 z M 16.99,8.394 v 4.995 h -5.037 l 5.037,-5 z m -2.95,2.05 V 9.57 C 14.04,9.4 13.907,9.263 13.736,9.263 H 4.24 c -0.17,0 -0.307,0.136 -0.307,0.307 v 0.917 L 1.063,7.697 8.167,3.23 c 0.45,-0.282 1.178,-0.282 1.63,0 L 16.9,7.697 14.04,10.443 z M 4.406,13.39 C 3.67,13.39 3,13.98 3,14.71 v 5.286 H 1.8 c -0.44,0 -0.798,-0.354 -0.798,-0.79 V 8.458 l 4.988,4.93 H 4.406 z m 6.4,8.796 c 0.646,0.64 1.694,0.64 2.344,0 L 19.992,15.4 V 26.212 C 19.992,26.649 19.636,27 19.194,27 H 4.804 c -0.44,0 -0.8,-0.352 -0.8,-0.788 V 15.466 l 6.803,6.72 z M 26.196,10.448 H 19.054 V 7.946 h 7.142 c 1.66,0 3.004,1.346 3.004,3.004 v 2.502 c 0,-1.658 -1.344,-3.004 -3.004,-3.004 z"
     inkscape:connector-curvature="0"
     id="path4" />
</svg>
